dji-master/img/content/contacts/map.svg

<svg width="10" height="15" viewBox="0 0 10 15" fill="none" xmlns="http://www.w3.org/2000/svg">
<path d="M6.85714 5C6.85714 6.25893 5.83036 7.28571 4.57143 7.28571C3.3125 7.28571 2.28571 6.25893 2.28571 5C2.28571 3.74107 3.3125 2.71428 4.57143 2.71428C5.83036 2.71428 6.85714 3.74107 6.85714 5ZM9.14286 5C9.14286 2.47321 7.09821 0.428571 4.57143 0.428571C2.04464 0.428571 0 2.47321 0 5C0 5.54464 0.0625 6.10714 0.294643 6.59821L3.55357 13.5089C3.73214 13.9018 4.14286 14.1429 4.57143 14.1429C5 14.1429 5.41071 13.9018 5.59821 13.5089L8.84822 6.59821C9.08036 6.10714 9.14286 5.54464 9.14286 5Z" fill="white"/>
</svg>

<svg width="10" height="15" fill="none" xmlns="http://www.w3.org/2000/svg"><path d="M6.857 5a2.29 2.29 0 01-2.286 2.286A2.29 2.29 0 012.286 5 2.29 2.29 0 014.57 2.714 2.29 2.29 0 016.857 5zm2.286 0A4.569 4.569 0 004.57.429 4.569 4.569 0 000 5c0 .545.063 1.107.295 1.598l3.259 6.91c.178.394.589.635 1.017.635.429 0 .84-.241 1.027-.634l3.25-6.91c.232-.492.295-1.054.295-1.599z" fill="#fff"/></svg>
